X: 1
T: the Nine Pint Coggie
R: Reel
A: Cape Breton
S: Sandy MacIntyre
M: C
L: 1/8
K: Em
F | "Em"~E2EF E2DB | "D"AFED       FAAd  |  "G"BdAB "D"defe | "(Bm)"dD~D2 "Em" FEE :|
F | "Em"Eeef  e2de | "D"f2ed "(Bm)"Bdde  | "Em"Beef    edef |  "D"   afed "Em"~e2e ||
f |  "D"abaf  defe | "D"dBAF       ABde  |  "D"faef    deBe |       dD~D2 "Em" FEE |]
